flaticon/science/atoms-7.svg

<svg xmlns="http://www.w3.org/2000/svg" width="32" height="32" viewBox="0 0 24 24">
    <path d="M 23.769531 14.71875 C 23.046875 13.761719 22.328125 13.761719 20.566406 14.679688 L 17.128906 16.800781 C 16.648438 17.078125 15.566406 17.160156 14.566406 17.160156 C 14.769531 16.800781 14.6875 16.359375 14.328125 15.839844 C 13.6875 14.921875 12.609375 14.359375 11.449219 14.359375 L 9.886719 14.359375 C 9.046875 14.359375 8.25 14.121094 7.609375 13.640625 C 6.164062 12.558594 3.90625 13.734375 2.808594 14.4375 L 2.808594 13.601562 L 0.0078125 13.601562 L 0.0078125 24 L 2.808594 24 L 2.808594 22.800781 L 8.007812 22.800781 C 8.808594 22.800781 9.648438 22.71875 10.449219 22.640625 L 15.648438 21.839844 C 15.847656 21.839844 16.046875 21.800781 16.207031 21.761719 C 16.6875 21.679688 17.128906 21.441406 17.527344 21.078125 L 23.566406 16.320312 C 24.046875 15.921875 24.128906 15.199219 23.769531 14.71875 Z M 2.007812 23.199219 L 0.808594 23.199219 L 0.808594 14.398438 L 2.007812 14.398438 Z M 23.089844 15.761719 L 17.007812 20.480469 L 16.96875 20.519531 C 16.726562 20.800781 16.40625 20.960938 16.089844 21 L 16.046875 21 C 15.886719 21.039062 15.769531 21.039062 15.609375 21.039062 L 10.328125 21.839844 C 9.566406 21.960938 8.769531 22 8.007812 22 L 2.808594 22 L 2.808594 15.398438 C 3.769531 14.71875 6.007812 13.441406 7.128906 14.320312 C 7.886719 14.878906 8.886719 15.199219 9.886719 15.199219 L 11.449219 15.199219 C 12.367188 15.199219 13.167969 15.601562 13.726562 16.359375 C 13.886719 16.601562 13.929688 16.839844 13.886719 16.921875 C 13.769531 17.121094 13.289062 17.199219 12.769531 17.238281 C 12.667969 17.238281 12.566406 17.238281 12.476562 17.238281 C 12.421875 17.214844 12.359375 17.199219 12.289062 17.199219 L 8.40625 17.199219 C 7.167969 17.199219 6.40625 17.800781 6.40625 18.800781 C 6.40625 19.039062 6.566406 19.199219 6.808594 19.199219 C 7.046875 19.199219 7.207031 19 7.207031 18.800781 C 7.207031 18.601562 7.207031 18 8.40625 18 L 12.289062 18 L 12.289062 18.039062 C 12.40625 18.039062 12.566406 18.039062 12.808594 18.039062 C 12.847656 18.039062 12.929688 18.039062 13.007812 18.039062 C 14.886719 18.078125 16.648438 18.039062 17.566406 17.558594 L 21.007812 15.441406 C 22.6875 14.601562 22.847656 14.800781 23.167969 15.28125 C 23.25 15.398438 23.25 15.640625 23.089844 15.761719 Z M 23.089844 15.761719"/>
    <path d="M 8.808594 11.601562 C 10.070312 11.601562 11.167969 10.964844 11.8125 9.992188 L 14.167969 10.605469 C 14.066406 10.917969 14.007812 11.253906 14.007812 11.601562 C 14.007812 13.359375 15.449219 14.800781 17.207031 14.800781 C 18.96875 14.800781 20.40625 13.359375 20.40625 11.601562 C 20.40625 10.277344 19.59375 9.136719 18.441406 8.648438 L 19.546875 5.5625 C 19.695312 5.585938 19.851562 5.601562 20.007812 5.601562 C 21.566406 5.601562 22.808594 4.359375 22.808594 2.800781 C 22.808594 1.238281 21.566406 0 20.007812 0 C 18.449219 0 17.207031 1.238281 17.207031 2.800781 C 17.207031 3.082031 17.25 3.355469 17.324219 3.609375 L 11.890625 6.132812 C 11.265625 5.089844 10.121094 4.398438 8.808594 4.398438 C 6.808594 4.398438 5.207031 6 5.207031 8 C 5.207031 10 6.808594 11.601562 8.808594 11.601562 Z M 19.609375 11.601562 C 19.609375 12.921875 18.527344 14 17.207031 14 C 15.886719 14 14.808594 12.921875 14.808594 11.601562 C 14.808594 10.582031 15.449219 9.707031 16.347656 9.359375 C 16.804688 9.203125 17.308594 9.175781 17.808594 9.320312 C 17.875 9.347656 17.941406 9.351562 18.003906 9.335938 C 18.9375 9.667969 19.609375 10.558594 19.609375 11.601562 Z M 20.007812 0.800781 C 21.128906 0.800781 22.007812 1.679688 22.007812 2.800781 C 22.007812 3.921875 21.128906 4.800781 20.007812 4.800781 C 18.886719 4.800781 18.007812 3.921875 18.007812 2.800781 C 18.007812 1.679688 18.886719 0.800781 20.007812 0.800781 Z M 12.25 6.839844 L 17.660156 4.332031 C 17.945312 4.773438 18.355469 5.128906 18.839844 5.347656 L 17.769531 8.441406 C 17.589844 8.410156 17.410156 8.398438 17.230469 8.402344 C 17.222656 8.402344 17.214844 8.398438 17.207031 8.398438 C 16.101562 8.398438 15.117188 8.972656 14.542969 9.832031 L 12.207031 9.199219 C 12.234375 9.121094 12.257812 9.042969 12.28125 8.960938 C 12.308594 8.855469 12.332031 8.746094 12.351562 8.640625 C 12.351562 8.632812 12.351562 8.628906 12.355469 8.621094 C 12.363281 8.578125 12.367188 8.535156 12.375 8.492188 C 12.375 8.480469 12.378906 8.464844 12.378906 8.449219 C 12.382812 8.414062 12.390625 8.375 12.390625 8.335938 C 12.394531 8.3125 12.394531 8.285156 12.398438 8.257812 C 12.398438 8.230469 12.402344 8.203125 12.402344 8.171875 C 12.40625 8.117188 12.410156 8.058594 12.410156 8 C 12.410156 7.949219 12.40625 7.898438 12.40625 7.847656 C 12.394531 7.628906 12.367188 7.414062 12.320312 7.203125 C 12.296875 7.085938 12.273438 6.964844 12.25 6.839844 Z M 8.808594 5.199219 C 9.875 5.199219 10.792969 5.78125 11.265625 6.648438 C 11.25 6.734375 11.257812 6.820312 11.289062 6.878906 C 11.488281 7.238281 11.566406 7.640625 11.566406 8.039062 C 11.566406 8.480469 11.449219 8.921875 11.25 9.320312 C 11.234375 9.363281 11.21875 9.40625 11.210938 9.449219 C 10.722656 10.261719 9.835938 10.800781 8.808594 10.800781 C 7.25 10.800781 6.007812 9.558594 6.007812 8 C 6.007812 6.441406 7.25 5.199219 8.808594 5.199219 Z M 8.808594 5.199219"/>
    <path d="M7.207031 8.398438C7.449219 8.398438 7.609375 8.238281 7.609375 8 7.609375 7.320312 8.128906 6.800781 8.808594 6.800781 9.046875 6.800781 9.207031 6.640625 9.207031 6.398438 9.207031 6.160156 9.046875 6 8.808594 6 7.6875 6 6.808594 6.878906 6.808594 8 6.808594 8.238281 6.96875 8.398438 7.207031 8.398438zM17.207031 10C16.328125 10 15.609375 10.71875 15.609375 11.601562 15.609375 11.839844 15.769531 12 16.007812 12 16.25 12 16.40625 11.839844 16.40625 11.601562 16.40625 11.160156 16.769531 10.800781 17.207031 10.800781 17.449219 10.800781 17.609375 10.640625 17.609375 10.398438 17.609375 10.160156 17.449219 10 17.207031 10zM19.207031 3.199219C19.449219 3.199219 19.609375 3.039062 19.609375 2.800781 19.609375 2.558594 19.769531 2.398438 20.007812 2.398438 20.25 2.398438 20.40625 2.238281 20.40625 2 20.40625 1.761719 20.25 1.601562 20.007812 1.601562 19.328125 1.601562 18.808594 2.121094 18.808594 2.800781 18.808594 3.039062 18.96875 3.199219 19.207031 3.199219zM19.207031 3.199219"/>
</svg>

<svg xmlns="http://www.w3.org/2000/svg" width="32" height="32" viewBox="0 0 24 24">
    <path d="M23.77 14.719c-.723-.957-1.442-.957-3.204-.04l-3.437 2.122c-.48.277-1.563.36-2.563.36.204-.36.121-.802-.238-1.321a3.512 3.512 0 0 0-2.879-1.48H9.887c-.84 0-1.637-.239-2.278-.72-1.445-1.081-3.703.094-4.8.797v-.835H.008V24h2.8v-1.2h5.2c.8 0 1.64-.081 2.441-.16l5.2-.8c.199 0 .398-.04.558-.078.48-.082.922-.32 1.32-.684l6.04-4.758c.48-.398.562-1.12.203-1.601zm-21.762 8.48h-1.2v-8.8h1.2zm21.082-7.437l-6.082 4.718-.04.04a1.393 1.393 0 0 1-.878.48h-.043c-.16.04-.277.04-.438.04l-5.28.8c-.763.12-1.56.16-2.321.16h-5.2v-6.602c.962-.68 3.2-1.957 4.32-1.078.759.559 1.759.88 2.759.88h1.562c.918 0 1.719.402 2.278 1.16.16.242.203.48.16.562-.117.2-.598.277-1.117.316h-.293a.472.472 0 0 0-.188-.039H8.406c-1.238 0-2 .602-2 1.602 0 .238.16.398.403.398a.4.4 0 0 0 .398-.398c0-.2 0-.801 1.2-.801h3.882v.04H13.008c1.879.038 3.64 0 4.558-.481l3.442-2.118c1.68-.84 1.84-.64 2.16-.16.082.117.082.36-.078.48zm0 0"/>
    <path d="M8.809 11.602c1.261 0 2.359-.637 3.004-1.61l2.355.613c-.102.313-.16.649-.16.997a3.21 3.21 0 0 0 3.199 3.199c1.762 0 3.2-1.442 3.2-3.2a3.215 3.215 0 0 0-1.966-2.953l1.106-3.085A2.786 2.786 0 0 0 22.809 2.8C22.809 1.238 21.566 0 20.008 0a2.783 2.783 0 0 0-2.801 2.8c0 .282.043.555.117.81l-5.433 2.523a3.578 3.578 0 0 0-3.082-1.735C6.809 4.398 5.207 6 5.207 8c0 2 1.602 3.602 3.602 3.602zm10.8 0A2.407 2.407 0 0 1 17.207 14a2.404 2.404 0 0 1-2.398-2.398c0-1.02.64-1.895 1.539-2.243.457-.156.96-.183 1.46-.039a.309.309 0 0 0 .196.016 2.411 2.411 0 0 1 1.605 2.266zM20.008.8c1.12 0 2 .879 2 2 0 1.12-.88 2-2 2-1.121 0-2-.88-2-2 0-1.121.879-2 2-2zM12.25 6.84l5.41-2.508a2.76 2.76 0 0 0 1.18 1.016L17.77 8.44a2.783 2.783 0 0 0-.54-.039c-.007 0-.015-.004-.023-.004-1.105 0-2.09.575-2.664 1.434l-2.336-.633c.027-.078.05-.156.074-.238.028-.106.051-.215.07-.32 0-.008 0-.012.004-.02.008-.043.012-.086.02-.129 0-.012.004-.027.004-.043.004-.035.012-.074.012-.113.004-.024.004-.05.007-.078 0-.028.004-.055.004-.086.004-.055.008-.113.008-.172 0-.05-.004-.102-.004-.152a3.935 3.935 0 0 0-.086-.645 30.754 30.754 0 0 1-.07-.363zM8.809 5.2c1.066 0 1.984.581 2.457 1.448a.37.37 0 0 0 .023.23c.2.36.277.763.277 1.161 0 .441-.117.883-.316 1.281-.016.043-.031.086-.04.13A2.786 2.786 0 0 1 8.81 10.8 2.786 2.786 0 0 1 6.008 8c0-1.559 1.242-2.8 2.8-2.8zm0 0"/>
    <path d="M7.207 8.398c.242 0 .402-.16.402-.398 0-.68.52-1.2 1.2-1.2.238 0 .398-.16.398-.402 0-.238-.16-.398-.398-.398-1.121 0-2 .879-2 2 0 .238.16.398.398.398zm0 0M17.207 10c-.879 0-1.598.719-1.598 1.602 0 .238.16.398.399.398.242 0 .398-.16.398-.398 0-.442.364-.801.801-.801.242 0 .402-.16.402-.403 0-.238-.16-.398-.402-.398zm0 0M19.207 3.2c.242 0 .402-.16.402-.4 0-.241.16-.402.399-.402.242 0 .398-.16.398-.398 0-.238-.156-.398-.398-.398-.68 0-1.2.52-1.2 1.199 0 .238.16.398.399.398zm0 0"/>
</svg>
